X:1130
T:Jackson over the water, 1780.
M:6/8
L:1/8
Q:3/8=120
I: :: ::
Z:Jack Campin * www.campin.me.uk * 2009
K:G
A/G/|FDD  FDD        |G>AG GFG |A>BA AGF|G>AG GFG|!
     A>BA AGF        |cAc  de=f|dAA  AGF|G3   G2:|!
g   |fdd  gdd        |fdd  cAA |fdd  gdd|fdd  d2  !
g   |fdd  a(a/b/a/g/)|fdd  de=f|cAA  AGF|G3   G2:|
<end>
<start>
